X:71
T:Leporella,La. CJF.071
T:La Leporella. CJF.071
R:Quadrille
S:C.J.Fox MS, 1829/33, Beverley,E.Yorks.
B:Kidson Coll.Mitchell Lib.M1805
O:England
A:East Yorkshire
Z:vmp.P J Headford 2000 & 2008
M:2/4
L:1/16
Q:1/4=90
K:G
“p”.g2.g.g .b.g.g2|d2dd g2dd|B2″ f”(Bc) (ed).d2|d2efg4|\
g2″p”gg bgg2|d2dd gdd2|B2″ f”(Bc) (ed).d2|d2e” Fine”fg4||!
” p”g2(ab) a2f2|(efga) f2d2|a2^g2=g2f2|(edef) d2d’2|\
” f”a2(fb) (af)d’2|a2(fb) (gf)d’2|a2^g2=g2f2|(ed” D.C.”ef)d4|]

